c64/_inc/system.svg

<svg xmlns="http://www.w3.org/2000/svg"><g fill="#fff"><path d="m60.855 26.64h38.94l-17.049 17.775h-21.891z"/><path d="m60.819 66.777h38.937l-17.046-17.775h-21.891z"/><path d="m60.009 1.833v22.395c-3.981-2.463-8.406-3.681-13.284-3.681-4.653 0-8.973 1.167-12.951 3.519-3.984 2.331-7.116 5.523-9.405 9.57-2.289 4.023-3.435 8.361-3.435 12.969 0 4.662 1.149 8.967 3.435 12.945 2.289 3.966 5.433 7.116 9.435 9.441 3.996 2.319 8.301 3.492 12.921 3.492 4.833 0 9.264-1.179 13.281-3.516v22.494c-4.314 1.302-8.742 1.95-13.281 1.95-8.331 0-16.107-2.1-23.31-6.303-7.197-4.203-12.909-9.921-17.112-17.118s-6.303-14.997-6.303-23.382c0-6.213 1.215-12.198 3.654-17.949 2.439-5.742 5.823-10.767 10.164-15.072 4.329-4.302 9.303-7.638 14.895-10.014 5.607-2.382 11.607-3.573 18.012-3.573 4.425 0 8.853.624 13.284 1.833"/><path d="m163.659 50.055c-.198 5.556-.891 7.947-3.066 10.125-3.165 3.216-7.224 4.065-20.292 4.065-10.173 0-14.454-.705-17.748-3.093-3.231-2.241-4.284-5.829-4.284-14.601 0-7.998.984-11.511 3.927-13.89 3.156-2.595 7.512-3.363 18.732-3.363 11.01 0 15.855.837 19.023 3.432 2.67 2.103 3.561 4.707 3.759 10.944h-12.609c-.423-3.78-2.871-5.052-10.173-5.052-8.631 0-10.239 1.332-10.239 8.277 0 4.356.702 6.039 2.949 6.954 1.47.636 4.137.981 7.431.981 7.296 0 9.402-.981 9.963-4.776z"/><path d="m208.971 32.379c3.363 2.454 4.302 5.466 4.302 13.821 0 9.123-.843 12.219-3.858 14.739-3.165 2.601-7.32 3.309-19.587 3.309-12.417 0-16.572-.708-19.689-3.309-3.117-2.52-3.909-5.613-3.909-15.234 0-7.779.99-10.938 4.305-13.326 3.066-2.244 7.911-3.021 19.242-3.021 11.328 0 16.125.774 19.194 3.021m-30.324 14.667c0 4.419.594 5.892 2.817 6.807 1.536.699 4.353 1.05 8.361 1.05 9.399 0 11.031-1.197 11.031-8.217 0-4.488-.744-6.099-3.018-7.005-1.581-.633-4.503-.99-8.013-.99-9.495 0-11.178 1.263-11.178 8.355"/><path d="m227.469 30.207v4.977h.645c1.83-3.993 6.036-5.826 13.404-5.826 8.016 0 12.417 2.037 15.09 6.954 2.127-4.986 6.183-6.954 14.295-6.954 6.873 0 10.98 1.269 13.848 4.281 2.868 2.946 3.513 5.685 3.513 14.235v15.522h-12.417v-15.522c-.099-5.532-.249-6.159-1.437-7.359-1.236-1.26-3.363-1.824-6.972-1.824-3.759 0-6.084.633-7.371 2.109-1.434 1.542-1.83 3.507-1.83 8.904v13.692h-12.417v-15.522c0-5.181-.147-6.096-1.332-7.359-1.14-1.26-3.315-1.824-6.879-1.824-3.759 0-6.183.633-7.566 2.034-1.434 1.404-1.83 3.51-1.83 8.979v13.692h-12.417v-33.189z"/><path d="m302.856 30.207v4.977h.594c1.83-3.993 6.033-5.826 13.404-5.826 8.016 0 12.417 2.037 15.09 6.954 2.127-4.986 6.183-6.954 14.343-6.954 6.876 0 10.932 1.269 13.8 4.281 2.868 2.946 3.513 5.685 3.513 14.235v15.522h-12.414v-15.522c-.051-5.532-.201-6.159-1.386-7.359-1.287-1.26-3.366-1.824-7.026-1.824-3.708 0-6.033.633-7.371 2.109-1.431 1.542-1.827 3.507-1.827 8.904v13.692h-12.417v-15.522c0-5.181-.15-6.096-1.335-7.359-1.14-1.26-3.315-1.824-6.876-1.824-3.711 0-6.186.633-7.569 2.034-1.434 1.404-1.83 3.51-1.83 8.979v13.692h-12.414v-33.189z"/><path d="m409.014 32.379c3.36 2.454 4.251 5.466 4.251 13.821 0 9.123-.84 12.219-3.855 14.739-3.168 2.601-7.272 3.309-19.59 3.309-12.417 0-16.521-.708-19.686-3.309-3.069-2.52-3.861-5.613-3.861-15.234 0-7.779.99-10.938 4.305-13.326 3.066-2.244 7.914-3.021 19.191-3.021 11.379 0 16.128.774 19.245 3.021m-30.324 14.667c0 4.419.543 5.892 2.817 6.807 1.536.699 4.353 1.05 8.31 1.05 9.447 0 11.031-1.197 11.031-8.217 0-4.488-.693-6.099-3.018-7.005-1.533-.633-4.5-.99-8.013-.99-9.447 0-11.127 1.263-11.127 8.355"/><path d="m462.783 63.396h-11.676v-4.353h-.645c-2.373 4.002-5.685 5.202-14.688 5.202-8.958 0-13.257-.918-16.128-3.51-2.724-2.529-3.561-5.904-3.561-14.184 0-8.424 1.335-12.417 4.845-14.727 3.018-1.974 6.432-2.526 14.988-2.526 8.706 0 11.574 1.119 13.95 5.334h.495v-18.042h12.414v46.806zm-34.284-16.983c0 7.29 1.386 8.418 10.737 8.418 4.551 0 7.914-.558 9.348-1.542 1.386-.921 1.878-2.679 1.878-6.534 0-6.861-1.632-8.133-10.485-8.133-9.792 0-11.478 1.128-11.478 7.791"/><path d="m507.747 32.379c3.363 2.454 4.302 5.466 4.302 13.821 0 9.123-.84 12.219-3.858 14.739-3.168 2.601-7.32 3.309-19.59 3.309-12.414 0-16.521-.708-19.689-3.309-3.114-2.52-3.855-5.613-3.855-15.234 0-7.779.99-10.938 4.254-13.326 3.117-2.244 7.965-3.021 19.245-3.021 11.376 0 16.122.774 19.191 3.021m-30.276 14.667c0 4.419.546 5.892 2.823 6.807 1.482.699 4.299 1.05 8.307 1.05 9.396 0 11.031-1.197 11.031-8.217 0-4.488-.693-6.099-3.018-7.005-1.533-.633-4.5-.99-8.013-.99-9.447 0-11.13 1.263-11.13 8.355"/><path d="m526.296 30.207v4.977h.645c2.274-4.215 5.787-5.826 12.762-5.826 9.99 0 13.356 3.372 13.356 13.335v2.244h-11.676c0-4.917-1.434-6.246-6.528-6.246-2.82 0-5.145.846-6.333 2.388-1.188 1.614-1.533 3.438-1.533 8.562v13.755h-12.417v-33.189z"/><path d="m599.751 52.8c-.939 9.195-5.49 11.445-23.25 11.445-9.594 0-14.148-.849-17.166-3.093-3.264-2.454-4.203-5.763-4.203-14.253 0-8.91.936-12.21 4.452-14.658 3.264-2.244 7.371-2.943 18.201-2.943 11.181 0 15.138.699 18.156 3.147 2.919 2.457 4.059 6.177 4.059 13.686 0 .42 0 1.959-.051 3.36h-32.451c0 3.375.399 4.491 1.584 5.412 1.335.984 3.909 1.41 8.409 1.41 7.914 0 9.396-.564 9.894-3.51zm-12.216-10.107c-.102-2.598-.246-3.225-.993-4.002-1.137-1.197-3.657-1.683-8.553-1.683-8.361 0-10.338 1.053-10.488 5.685z"/></g></svg>

<?xml version="1.0" encoding="utf-8"?>
<svg version="1.1" xmlns="http://www.w3.org/2000/svg" xmlns:bx="https://boxy-svg.com">
  <g>
    <path id="path1922" d="M 60.855 26.64 L 99.795 26.64 L 82.746 44.415 L 60.855 44.415 L 60.855 26.64 Z" style="fill-opacity: 1; fill: rgb(255, 255, 255);" bx:origin="-1.563 -1.499"/>
    <path id="path3805" d="M 60.819 66.777 L 99.756 66.777 L 82.71 49.002 L 60.819 49.002 L 60.819 66.777 Z" style="fill-opacity: 1; fill: rgb(255, 255, 255);" bx:origin="-1.562 -2.757"/>
    <path id="path4382" d="M 60.009 1.833 L 60.009 24.228 C 56.028 21.765 51.603 20.547 46.725 20.547 C 42.072 20.547 37.752 21.714 33.774 24.066 C 29.79 26.397 26.658 29.589 24.369 33.636 C 22.08 37.659 20.934 41.997 20.934 46.605 C 20.934 51.267 22.083 55.572 24.369 59.55 C 26.658 63.516 29.802 66.666 33.804 68.991 C 37.8 71.31 42.105 72.483 46.725 72.483 C 51.558 72.483 55.989 71.304 60.006 68.967 L 60.006 91.461 C 55.692 92.763 51.264 93.411 46.725 93.411 C 38.394 93.411 30.618 91.311 23.415 87.108 C 16.218 82.905 10.506 77.187 6.303 69.99 C 2.1 62.793 0 54.993 0 46.608 C 0 40.395 1.215 34.41 3.654 28.659 C 6.093 22.917 9.477 17.892 13.818 13.587 C 18.147 9.285 23.121 5.949 28.713 3.573 C 34.32 1.191 40.32 0 46.725 0 C 51.15 0 55.578 0.624 60.009 1.833" style="fill-opacity: 1; fill: rgb(255, 255, 255);" bx:origin="0 0"/>
    <path id="path4340" d="M 163.659 50.055 C 163.461 55.611 162.768 58.002 160.593 60.18 C 157.428 63.396 153.369 64.245 140.301 64.245 C 130.128 64.245 125.847 63.54 122.553 61.152 C 119.322 58.911 118.269 55.323 118.269 46.551 C 118.269 38.553 119.253 35.04 122.196 32.661 C 125.352 30.066 129.708 29.298 140.928 29.298 C 151.938 29.298 156.783 30.135 159.951 32.73 C 162.621 34.833 163.512 37.437 163.71 43.674 L 151.101 43.674 C 150.678 39.894 148.23 38.622 140.928 38.622 C 132.297 38.622 130.689 39.954 130.689 46.899 C 130.689 51.255 131.391 52.938 133.638 53.853 C 135.108 54.489 137.775 54.834 141.069 54.834 C 148.365 54.834 150.471 53.853 151.032 50.058 L 163.659 50.055 L 163.659 50.055 Z" style="fill-opacity: 1; fill: rgb(255, 255, 255);" bx:origin="-2.603 -0.838"/>
    <path id="path4342" d="M 208.971 32.379 C 212.334 34.833 213.273 37.845 213.273 46.2 C 213.273 55.323 212.43 58.419 209.415 60.939 C 206.25 63.54 202.095 64.248 189.828 64.248 C 177.411 64.248 173.256 63.54 170.139 60.939 C 167.022 58.419 166.23 55.326 166.23 45.705 C 166.23 37.926 167.22 34.767 170.535 32.379 C 173.601 30.135 178.446 29.358 189.777 29.358 C 201.105 29.358 205.902 30.132 208.971 32.379 M 178.647 47.046 C 178.647 51.465 179.241 52.938 181.464 53.853 C 183 54.552 185.817 54.903 189.825 54.903 C 199.224 54.903 200.856 53.706 200.856 46.686 C 200.856 42.198 200.112 40.587 197.838 39.681 C 196.257 39.048 193.335 38.691 189.825 38.691 C 180.33 38.691 178.647 39.954 178.647 47.046" style="fill-opacity: 1; fill: rgb(255, 255, 255);" bx:origin="-3.534 -0.841"/>
    <path id="path4344" d="M 227.469 30.207 L 227.469 35.184 L 228.114 35.184 C 229.944 31.191 234.15 29.358 241.518 29.358 C 249.534 29.358 253.935 31.395 256.608 36.312 C 258.735 31.326 262.791 29.358 270.903 29.358 C 277.776 29.358 281.883 30.627 284.751 33.639 C 287.619 36.585 288.264 39.324 288.264 47.874 L 288.264 63.396 L 275.847 63.396 L 275.847 47.874 C 275.748 42.342 275.598 41.715 274.41 40.515 C 273.174 39.255 271.047 38.691 267.438 38.691 C 263.679 38.691 261.354 39.324 260.067 40.8 C 258.633 42.342 258.237 44.307 258.237 49.704 L 258.237 63.396 L 245.82 63.396 L 245.82 47.874 C 245.82 42.693 245.673 41.778 244.488 40.515 C 243.348 39.255 241.173 38.691 237.609 38.691 C 233.85 38.691 231.426 39.324 230.043 40.725 C 228.609 42.129 228.213 44.235 228.213 49.704 L 228.213 63.396 L 215.796 63.396 L 215.796 30.207 L 227.469 30.207 Z" style="fill-opacity: 1; fill: rgb(255, 255, 255);" bx:origin="-2.978 -0.863"/>
    <path id="path4346" d="M 302.856 30.207 L 302.856 35.184 L 303.45 35.184 C 305.28 31.191 309.483 29.358 316.854 29.358 C 324.87 29.358 329.271 31.395 331.944 36.312 C 334.071 31.326 338.127 29.358 346.287 29.358 C 353.163 29.358 357.219 30.627 360.087 33.639 C 362.955 36.585 363.6 39.324 363.6 47.874 L 363.6 63.396 L 351.186 63.396 L 351.186 47.874 C 351.135 42.342 350.985 41.715 349.8 40.515 C 348.513 39.255 346.434 38.691 342.774 38.691 C 339.066 38.691 336.741 39.324 335.403 40.8 C 333.972 42.342 333.576 44.307 333.576 49.704 L 333.576 63.396 L 321.159 63.396 L 321.159 47.874 C 321.159 42.693 321.009 41.778 319.824 40.515 C 318.684 39.255 316.509 38.691 312.948 38.691 C 309.237 38.691 306.762 39.324 305.379 40.725 C 303.945 42.129 303.549 44.235 303.549 49.704 L 303.549 63.396 L 291.135 63.396 L 291.135 30.207 L 302.856 30.207 Z" style="fill-opacity: 1; fill: rgb(255, 255, 255);" bx:origin="-4.018 -0.863"/>
    <path id="path4348" d="M 409.014 32.379 C 412.374 34.833 413.265 37.845 413.265 46.2 C 413.265 55.323 412.425 58.419 409.41 60.939 C 406.242 63.54 402.138 64.248 389.82 64.248 C 377.403 64.248 373.299 63.54 370.134 60.939 C 367.065 58.419 366.273 55.326 366.273 45.705 C 366.273 37.926 367.263 34.767 370.578 32.379 C 373.644 30.135 378.492 29.358 389.769 29.358 C 401.148 29.358 405.897 30.132 409.014 32.379 M 378.69 47.046 C 378.69 51.465 379.233 52.938 381.507 53.853 C 383.043 54.552 385.86 54.903 389.817 54.903 C 399.264 54.903 400.848 53.706 400.848 46.686 C 400.848 42.198 400.155 40.587 397.83 39.681 C 396.297 39.048 393.33 38.691 389.817 38.691 C 380.37 38.691 378.69 39.954 378.69 47.046" style="fill-opacity: 1; fill: rgb(255, 255, 255);" bx:origin="-7.795 -0.841"/>
    <path id="path4350" d="M 462.783 63.396 L 451.107 63.396 L 451.107 59.043 L 450.462 59.043 C 448.089 63.045 444.777 64.245 435.774 64.245 C 426.816 64.245 422.517 63.327 419.646 60.735 C 416.922 58.206 416.085 54.831 416.085 46.551 C 416.085 38.127 417.42 34.134 420.93 31.824 C 423.948 29.85 427.362 29.298 435.918 29.298 C 444.624 29.298 447.492 30.417 449.868 34.632 L 450.363 34.632 L 450.363 16.59 L 462.777 16.59 L 462.777 63.396 L 462.783 63.396 Z M 428.499 46.413 C 428.499 53.703 429.885 54.831 439.236 54.831 C 443.787 54.831 447.15 54.273 448.584 53.289 C 449.97 52.368 450.462 50.61 450.462 46.755 C 450.462 39.894 448.83 38.622 439.977 38.622 C 430.185 38.622 428.499 39.75 428.499 46.413" style="fill-opacity: 1; fill: rgb(255, 255, 255);" bx:origin="-8.91 -0.348"/>
    <path id="path4352" d="M 507.747 32.379 C 511.11 34.833 512.049 37.845 512.049 46.2 C 512.049 55.323 511.209 58.419 508.191 60.939 C 505.023 63.54 500.871 64.248 488.601 64.248 C 476.187 64.248 472.08 63.54 468.912 60.939 C 465.798 58.419 465.057 55.326 465.057 45.705 C 465.057 37.926 466.047 34.767 469.311 32.379 C 472.428 30.135 477.276 29.358 488.556 29.358 C 499.932 29.358 504.678 30.132 507.747 32.379 M 477.471 47.046 C 477.471 51.465 478.017 52.938 480.294 53.853 C 481.776 54.552 484.593 54.903 488.601 54.903 C 497.997 54.903 499.632 53.706 499.632 46.686 C 499.632 42.198 498.939 40.587 496.614 39.681 C 495.081 39.048 492.114 38.691 488.601 38.691 C 479.154 38.691 477.471 39.954 477.471 47.046" style="fill-opacity: 1; fill: rgb(255, 255, 255);" bx:origin="-9.897 -0.841"/>
    <path id="path4354" d="M 526.296 30.207 L 526.296 35.184 L 526.941 35.184 C 529.215 30.969 532.728 29.358 539.703 29.358 C 549.693 29.358 553.059 32.73 553.059 42.693 L 553.059 44.937 L 541.383 44.937 C 541.383 40.02 539.949 38.691 534.855 38.691 C 532.035 38.691 529.71 39.537 528.522 41.079 C 527.334 42.693 526.989 44.517 526.989 49.641 L 526.989 63.396 L 514.572 63.396 L 514.572 30.207 L 526.296 30.207 Z" style="fill-opacity: 1; fill: rgb(255, 255, 255);" bx:origin="-13.37 -0.863"/>
    <path id="path4356" d="M 599.751 52.8 C 598.812 61.995 594.261 64.245 576.501 64.245 C 566.907 64.245 562.353 63.396 559.335 61.152 C 556.071 58.698 555.132 55.389 555.132 46.899 C 555.132 37.989 556.068 34.689 559.584 32.241 C 562.848 29.997 566.955 29.298 577.785 29.298 C 588.966 29.298 592.923 29.997 595.941 32.445 C 598.86 34.902 600 38.622 600 46.131 C 600 46.551 600 48.09 599.949 49.491 L 567.498 49.491 C 567.498 52.866 567.897 53.982 569.082 54.903 C 570.417 55.887 572.991 56.313 577.491 56.313 C 585.405 56.313 586.887 55.749 587.385 52.803 L 599.751 52.8 L 599.751 52.8 Z M 587.535 42.693 C 587.433 40.095 587.289 39.468 586.542 38.691 C 585.405 37.494 582.885 37.008 577.989 37.008 C 569.628 37.008 567.651 38.061 567.501 42.693 L 587.535 42.693 Z" style="fill-opacity: 1; fill: rgb(255, 255, 255);" bx:origin="-12.373 -0.838"/>
  </g>
</svg>
